X:270
T: ES FUHR EIN BAUR INS HOLZ
N: E0149
O: Europa, Mitteleuropa, Deutschland
R: erzaehlendes Volks - Lied, Scherz, Schwank, betrogener Ehemann
M: 4/4
L: 1/4
K: C
C | CCA,A, | G,G,E,
E, | G,G,F,F, | E,2z
G, | CCDD | E2C
F | ECCB, | C2A,B, | C2A,B, | C2z

